X:1
T:Trio Sonate No.1 D-Dur from " 12 Trio Sonata Op.2 "
T:3
T:Arcangelo Corelli (1653-1713) Arrangement von Alfred Moffat
T:Trio Sonate No.1 D-Dur
T:from " 12 Trio Sonata Op.2 " Transcribed for Recorder, Traverso and B/C in F-Dur from IMSLP372339 PDF File
T:Public Domain - Non-PD EU
T:Public Domain - Non-PD EU
T:Public Domain - Non-PD EU
T:Public Domain - Non-PD EU
T:Public Domain - Non-PD EU
C:Arcangelo Corelli (1653-1713)
Z:Public Domain - Non-PD EU
%%score [ 1 2 3 ] { ( 4 5 7 8 ) | ( 6 9 ) }
L:1/8
Q:1/4=50
M:4/4
K:F
V:1 treble nm="Alto Recorder" snm="A. Rec."
V:2 treble nm="Frauto traverso" snm="Trv."
V:3 bass nm="Viola da gamba" snm="Vla. d. g."
V:4 treble nm="Harpsichord" snm="Hch."
V:5 treble 
V:7 treble 
V:8 treble 
V:6 bass 
V:9 bass 
V:1
"^Largo""^1. Preludio."!mf! c'3 c' d'2 d'2 | c'4 b4 | (a3 c') (d'g) g2 |"_dim." f2 z2 z (f'e'c') | %4
 d'd'(c'f) b4 |"_cresc." a4 g4 | f4 e4 | d2!p! f4 g2- | g2 a4 b2- |"_cresc." b2 (c'b) a3- a | %10
 (d'c'ba) g2 a2 | g4!f! f4 | (dc)!tenuto!B!tenuto!A !tenuto!G2 !tenuto!A2 | G4 A4 |] %14
[M:4/4][Q:1/4=120]"^2. Allegro." !wedge!f!wedge!c!wedge!a!wedge!f !wedge!c'2 z/ !wedge!a/!wedge!b/!wedge!c'/ | %15
 !wedge!d'>!wedge!d'(!wedge!c'>!wedge!b) a3 (a/b/) | %16
 (c'>a)(g>f) !wedge!e!wedge!c!wedge!c'!wedge!f | (b/c'/a/b/) (g>f) f2!p! (c'>f) | %18
 (b3 c'/b/) a2 g>c | (f3 g/f/) e3 !wedge!g | (a>=b)(c'>d') b g2 (c'/b/) | (a/g/f/e/) Td>c c4 :: %22
!mf! !wedge!c!wedge!G!wedge!e!wedge!c !wedge!g2 z/ !wedge!g/!wedge!a/!wedge!b/ | %23
 (c'>!wedge!d')(b>!wedge!a) a3 !wedge!a | %24
 (ga/g/) (f/a/g/f/) !wedge!e!wedge!A !wedge!d!wedge!d'/!wedge!^c'/ | %25
 (b/a/g/f/) (Te>d) d2 z/!p! .^f/.g/.a/ | (d>d')(d'>g) g2 z/"_cresc." .g/.a/.b/ | %27
 (c'>.d')(b>.a) a2 z/ .a/.b/.c'/ |!f! (d'>!wedge!c')(b>!wedge!a) (g>!wedge!c')(d'>d) | %29
 !tenuto!e!tenuto!f/!tenuto!g/ (Tg>!tenuto!f) f4 :| z/8 | %31
[M:3/4][Q:1/4=120]"^Allegro""^3. Corrente."!f! !wedge!c' | c'3 !wedge!a!wedge!b!wedge!c' | %33
 d'2 (c'3 !wedge!b) | a6 | c'2 (b3 !wedge!a) | (g3 !wedge!e) f2 | g2 (g3 c') | a6 | %39
!mf! f2 (c'3 b) | (a3 !wedge!c') f2 | a2 (=B3 g) | e6 |!f! g2 (a3 a) | =b3 b c'2 | %45
 !wedge!f!wedge!e (Td3 c) | c6- | c4 z ::!f! g | g3 !wedge!e!wedge!f!wedge!g | a2 (b3 a) | a6 | %52
 a2 (=b3 b) | ^c'3 !wedge!c'!wedge!d'!wedge!a | !wedge!g!wedge!f (Te3 d) |!>(! d6!>)! | (d2 g3) f | %57
 e3 g c2 | c'2 (b3 a) | a6 |!f! b2 (c'3 !wedge!c') | (d'3 e) (f2- | fg) Tg3 f | f6- | f4 z :| z/8 | %66
[M:2/2]"^4. Gavotta."[Q:1/2=80]!f! !wedge!a2 !wedge!c'2 !wedge!f'2 !wedge!f2 | %67
 b>c'a>b !wedge!g2 !wedge!f2 | !wedge!a2 !wedge!c'2 !wedge!g2 !wedge!c2 | %69
 (f>g)(e>f) !wedge!d2 !wedge!c2 |!p! .a2 .c'2 .f'2 .f2 | (b>c')(a>b) .g2 .f2 | .a2 .c'2 .g2 .c2 | %73
 (f>g)(e>f) .d2 .c2 |!f! !wedge!g2 !wedge!c'2 !wedge!a2 !wedge!d'2 | %75
 (b>a)(g>f) !wedge!e2 !wedge!d2 |!p! .c'2 .c2 .d2 .f2 | (b>c')(a>b) g2 f2 | %78
"_cresc." !wedge!g2 !wedge!c'2 !wedge!a2 !wedge!d'2 | b>ag>f !wedge!e2 !wedge!d2 | %80
!ff! !tenuto!c'2 !tenuto!c2 !tenuto!d2 !tenuto!f2 | (b>c')(a>b) g2 !fermata!f2 :| %82
V:2
!mf! a3 a b2 b2- | b2 a4 g2- | g2 f4 (e2 |"_dim." f)(agf) f(fga) | (db) a2 d2 g2- | %5
"_cresc." g2 f4 e2- | e2 d4 ^c2 | d2 z2!p! d4 | e4 f4 |"_cresc." g6 (fe) | d3- d (ec) f2- | %11
 f2 e2!f! f4 | F4 E2 F2- | F2 E2 F4 |] %14
[M:4/4] !wedge!a!wedge!f!wedge!c!wedge!A !wedge!a2 z/ !wedge!f/!wedge!g/!wedge!a/ | %15
 !wedge!b>!wedge!d(!wedge!e>!wedge!e) f3 (f/g/) | (a>c')(b>a) !wedge!g!wedge!e!wedge!a!wedge!A | %17
 (d/e/f) (fe) f2!p! (a2- | a/g/f) .g.g .g.c e2- | e/d/c .d.d .d.G (g2- | gc)(f>f) (fe) z g | %21
 (A/=B/c) (c>B) c4 :: %22
!mf! !wedge!e!wedge!c!wedge!G!wedge!E !wedge!e2 z/ !wedge!e/!wedge!f/!wedge!g/ | %23
 !wedge!a!wedge!f(g>!wedge!g) c3 !wedge!f | %24
 (ef/e/) (d/f/e/d/) !wedge!^c!wedge!e !wedge!f!wedge!b/!wedge!a/ | %25
 (g/f/e/d/) (d>^c) d2 z/!p! .d/.e/.^f/ | (g>a)(f>e) e2 z/"_cresc." .e/.f/.g/ | %27
 (a>.f)(g>.c) c2 z/ .f/.g/.a/ |!f! (b>a)(g>f) e2 z z/ !wedge!f/ | %29
 !tenuto!g!tenuto!c (e>!tenuto!f) f4 :| z/8 |[M:3/4]!f! c' | a3 fga | b2 (a3 g) | f6 | %35
 a2 (g3 !wedge!f) | (e3 !wedge!g) c2 | f2 (e3 f) | f6 |!mf! a2 (g3 g) | (f3 !wedge!f) a2 | %41
 f2 (d3 c) | c6 |!f! g2 (f3 e) | d3 d e2 | c2 (=B3 g) | e6- | e4 z ::!f! e | %49
 e3 !wedge!c!wedge!d!wedge!e | f2 (g3 g) | c6 | a2 (g3 f) | e3 e f2 | d2 (d3 ^c) |!>(! d6!>)! | %56
 g2 =B4 | c4 e2 | f2 g4 | c6 |!f! f2 f4 | f3 g c2 | f2 e3 f | f6- | f4 z :| z/8 | %66
[M:2/2]!f! !wedge!f2 !wedge!g2 !wedge!a2 !wedge!c2 | d>ef>g !wedge!e2 !wedge!f2 | %68
 !wedge!f2 !wedge!a2 !wedge!c2 !wedge!e2 | (A>=B)(c>d) !wedge!B2 !wedge!c2 |!p! .f2 .g2 .a2 .c2 | %71
 (d>e)(f>g) .e2 .f2 | .f2 .a2 .c2 .e2 | (A>=B)(c>d) .B2 .c2 | %74
!f! !wedge!e2 !wedge!g2 !wedge!c2 !wedge!a2 | (d>f)(e>d) !wedge!^c2 !wedge!d2 | %76
!p! .f2 .A2 .F2 .c2 | (d>e)(f>g) e2 f2 |"_cresc." !wedge!e2 !wedge!g2 !wedge!c2 !wedge!a2 | %79
 d>fe>d !wedge!^c2 !wedge!d2 |!ff! !tenuto!f2 !tenuto!A2 !tenuto!F2 !tenuto!c2 | %81
 (d>e)(f>g) e2 !fermata!f2 :| %82
V:3
!mf! (F,G,)(A,F,) (B,,C,)(D,E,) | (F,G,)(A,F,) (G,F,)(E,C,) | (F,G,)(A,F,) (B,G,)(CC,) | %3
"_dim." (F,F)(EC) (DD)(CA,) | B,2 F,2 G,F,E,C, |"_cresc." F,G,A,B, CC,E,^C, | D,E,F,G, A,G,A,A,, | %7
 D,3!p! A, B,A,B,G, | CB,CA, DCDD, |"_cresc." E,D,E,C, F,G,A,F, | B,CDB, CB,A,F, | %11
 B,G,CC,!f! FEDC | B,A,G,F, C2 F,2 | C,4 F,,4 |] %14
[M:4/4] F,2 z2 !wedge!F,!wedge!C!wedge!A,!wedge!F, | %15
 !wedge!B,,2 !wedge!C,2 !wedge!D,!wedge!D!wedge!C!wedge!B, | A,2 B,2 C2 A,2 | G,F,CC, F,2!p! F,2 | %18
 D,2 E,2 F,2 C,2 | A,2 =B,2 C2 E,2 | F,2 z F, G,2 E,2 | F,2 G,2 C,4 ::!mf! C,2 z2 C,G,E,C, | %23
 A,,2 z2 F,CA,F, | G,3 E, A,2 F,2 | G,2 A,2 DA,^F,!p!D, | =B,,2 z2 CG,"_cresc."E,C, | %27
 A,,2 z2 FCA,F, |!f! B,,3- B,, (C,>A,) B,2- | %29
 !tenuto!B,!tenuto!A,/!tenuto!B,/ !tenuto!C!tenuto!C, F,4 :| z/8 |[M:3/4]!f! F, | F,4 F,2 | %33
 B,,2 C,4 | D,3 !wedge!D!wedge!C!wedge!B, | A,2 B,4 | (C3 !wedge!B,) A,2 | B,2 C4 | F,6 | %39
!mf! F,2 E,4 | F,6 | F,2 G,4 | A,3 !wedge!A,!wedge!G,!wedge!F, |!f! E,2 F,4 | G,3 F, E,2 | %45
 F,2 G,4 | C,6- | C,4 z ::!f! C | C4 B,2 | A,2 G,4 | F,6 | F,2 G,4 | A,3 G, F,2 | G,2 A,4 | %55
!>(! D3 !wedge!E!wedge!C!wedge!D!>)! | B,,2 G,,4 | C,4 B,,2 | A,,2 E,4 | F,4 E,2 |!f! D,2 A,4 | %61
 B,4 A,2 | B,2 C2 C,2 | F,6- | F,4 z :| z/8 | %66
[M:2/2]!f! !wedge!F,2 !wedge!E,2 !wedge!D,2 !wedge!A,2 | %67
 !wedge!G,2 !wedge!F,2 !wedge!C2 !wedge!F,2 | F,4 E,4 | %69
 !wedge!D,2 !wedge!A,,2 !wedge!G,,2 !wedge!C,2 |!p! !wedge!F,2 !wedge!E,2 !wedge!D,2 !wedge!A,2 | %71
 !wedge!G,2 !wedge!F,2 !wedge!C2 !wedge!F,2 | F,4 E,4 | %73
 !wedge!D,2 !wedge!A,,2 !wedge!G,,2 !wedge!C,2 |!f! C,4 F,4 | %75
 !wedge!G,2 !wedge!D,2 !wedge!A,2 !wedge!D,2 |!p! A,4 .B,2 .A,2 | .G,2 .F,2 .C2 .F,2 | %78
"_cresc." C,4 F,4 | !wedge!G,2 !wedge!D,2 !wedge!A,2 !wedge!D,2 | %80
!ff! !tenuto!A,,4 !tenuto!B,,2 !tenuto!A,2 | !tenuto!G,2 !tenuto!F,2 !tenuto!C2 !fermata!F,2 :| %82
V:4
 (A(B)cA defd) | (c2 f2) (B3 c) | (ABcA Gd c2) | (Ac) c2 z A c2 | z [DB] A2 [DB]2 [Gc]2 | %5
 (A2 cd G2 [Ec]2) | (FGAB) [EA]4 | ([FA][GB][FA][Fc]) (BcdB) | Gedc Afed | c4 (ABcA) | %10
 de f2 c2 f2 | ([Fd]2 [Ec]2) [Ac]4 | [Ff]4 c4 | [Gc]4 [FAc]4 |][M:4/4] (Ac)(cf) [cf]4 | %15
 [FBd]2 [EBc]2 [FAf]2 z2 | (([Fcf]2 d))c c4 | BAGc A2 f2 | F/G/A/B/ G/c/e/g/ A/f/c/f/ G/e/c/e/ | %19
 c/d/e/f/ g/d/G/d/ e/G/e/G/ g/e/c/G/ | ((g2 f2)) [=Bg]2 [cgc']2 | [cf]2 [dg]2 [cegc']4 :: %22
 EGGc [Gc]4 | [Fcf]2 z2 [Ac]4 | E z z/ (D/E/F/ ^C/E/A/^c/ D/F/A/d/) | %25
 [DB][Gd] [EA]2 [DFA]2 [^FAd]2 | [Gd]2 z2 [Gce]4 | [Fcf]2 z2!<)!!<(!!<)!!<(! [Acf]4 | %28
 [Fdf]2 z [Gdf] [Gce]>[Fcf] [Fdf]2 | c2 Ac [CFAc]4 :| z/8 |[M:3/4] z | [Acf]2 [FAc]4 | %33
 [Fd]2 [EGc]4 | A2 [FAd]4 | [Fc]2 ([GB][Ac] [Bd]2) | [EG]2 [EGc]2 [Fcf]2 | [FGd]2 [EGc]4 | %38
 [FA]2 [FAc]4 | [Ad]2 (c2 g2) | [A-cf]2 [Ac]4 | [FAd]2 (=B3 c) | ([EAc]2 [CEA]4) | %43
 [Gcg]2 ([Af]3 [Ge]) | ([F=Bd]2 [DGB]2) [Gcg]2 | (fe d3 c) | [EGc]6 | [cegc']4 z :: z | %49
 ([Gce]2 [EGc]4) | f2 [ceg]4 | ([cfa]2 [Acf]4) | [Acf]2 [=Bd]4 | [EA^c]2 [^CEA]2 [DAd]2 | %54
 [Bd]2 d2 ^c2 | [FAd-]6 | (d4 B2) | ([EGc]2 [Gce]4) | f2 (c2 g2) | a2 f4 | f6 | d4 c2 | %62
 Md2 [EGc]4 | [FAc]6 | [fa]4 z :| z/8 |[M:2/2] [Acfa]2 [Gcg]2 [FAf]2 [Fc]2 | %67
 [EBce]2 [FAcf]2 [Gce]2 [Acf]2 | [cf]2 c2 [cg]2 c2 | [G=Bf]2 [Gce]2 [Bd]2 [Ec]2 | %70
 [cfa]2 [cg]2 [FAf]2 [Fc]2 | [Bce]2 [Acf]2 [Gce]2 [Acf]2 | [cf]2 c2 [cg]2 c2 | %73
 [G=Bf]2 [Gce]2 [Bd]2 [Ec]2 | [Gceg]2 [Gce]2 [Acf]2 [FAd]2 | [DBd]2 [Bd]2 [EA^c]2 [FAd]2 | %76
 (c2 f2) ([Bd]2 c2) | ([Bce]2 [Acf]2) (([Gce]2 [Af]2)) | [cec']2 [Gce]2 [Acf]2 [FAd]2 | %79
 [Bd]2 [Bd]2 [A^c]2 [FAd]2 | c2 f2 [FBd]2 [Fc]2 | [DBd]>[Ee] [FAf]2 [Gce]2 !fermata![FAcf]2 :| %82
V:5
 A2 x2 [FB]4 | B2 A2 [DA]2 G2- | G2 F2- F2 E2 | FAGE x FA x | x2 (F_E) x2 C=E | .G2 .F4 x2 | %6
 E2 D2- x D2 ^C | D3 C D4 | x8 | (GFGE) F4 | d2 BB EG F2 | G4 F4 | dcBA [EG]2 [FA]2 | G2 E2 x4 |] %14
[M:4/4] F2 A2 A4 | x8 | x2 F2 EGFA | D/E/F FE F2 A2 | x8 | x8 | x8 | x8 :: C2 E2 E4 | x8 | x8 | %25
 x2 D^C x4 | x8 | x8 | x8 | [EG]F/G/ E2 x4 :| x/4 |[M:3/4] x | x6 | x6 | A,2 x4 | x6 | x6 | x6 | %38
 x6 | x2 G4 | x6 | x2 [FG]4 | x6 | x2 c4 | x6 | [Ac]2 =B2 G2 | x6 | x5 :: x | x6 | x6 | x6 | %52
 x2 (G2 F2) | x6 | GF [FA]4 | x6 | G6 | x6 | x2 [Gc]4 | [Fc]2 (A2 G2) | [FB]2 [Fc]4 | F6 | x6 | %63
 x6 | x5 :| x/4 |[M:2/2] x8 | x8 | A4 G4 | x4 GF x2 | x8 | x8 | A4 G4 | x4 FF x2 | x8 | %75
 x2 (G>F) x4 | F4 F4 | x8 | x8 | D2 (G>F) E2 x2 | F4 x4 | x8 :| %82
V:6
 (F,G,A,F, B,,C,D,E,) | F, G,A,F, G,F,E,C, | (F,G,A,F, B,G,E,C,) | F,FEC DDCA, | %4
 (B,2 F,2) (G,F,E,C,) | (F,G,A,=B, CC,E,C,) | D,E,F,G, A,G,A,A,, | D,3 A, B,A,B,G, | CB,CA, DCDD, | %9
 E,D,E,C, F,G,A,F, | B, C DB, CB,A,F, | B,G,CC, F,[E,E]D,.[C,C] | %12
 [B,,B,] [A,,A,] [G,,G,][F,,F,] [C,C]2 [F,,F,]2 | [C,,C,]4 [F,,F,]4 |][M:4/4] [F,,F,]2 z2 FCA,F, | %15
 B,B,, C,2 D,DCB, | A,2 B,2 C2 A,2 | G,F,CC, F,2 F2 | D2 E2 F2 C2 | A,2 =B,2 C2 E,2 | %20
 [F,,F,]4 [G,,G,]2 [E,,E,]2 | [F,,F,]2 [G,,G,]2 [C,,C,]4 :: C,2 z2 CG,E,C, | [A,,A,]2 z2 FCA,F, | %24
 G, z G, z A,2 F,2 | G,2 A,2 [D,A,]4 | [=B,,G,=B,]2 z2 [C,C]G,E,C, | [A,,E,A,]2 z2 FCA,F, | %28
 [B,,B,]2 z [B,,B,] B,>B, B,,2 | [B,,B,][A,,A,]/[B,,B,]/ [C,C][C,,C,] [F,,F,]4 :| z/8 |[M:3/4] z | %32
 F,,4 [F,,F,]2 | [B,,,B,,]2 [C,,C,]4 | [D,,D,]3 [D,D][C,C][B,,B,] | [A,,A,]2 [B,,B,]4 | %36
 ([C,C]3 .[B,,B,] [A,,A,]2) | [B,,B,]2 C4 | [F,C]4 ([F,,F,][E,,E,]) | [D,,D,]2 [E,,E,]4 | %40
 [F,,F,]6 | [F,,F,]2 [G,,G,]4 | [A,,A,]3 [A,,A,][G,,G,][F,,F,] | [E,,E,]2 [F,,F,]4 | %44
 [G,,G,]3 [F,,F,] [E,,E,]2 | [F,,F,]2 [G,,G,]4 | [C,C]2 [G,,G,][F,,F,][E,,E,][D,,D,] | %47
 [C,,C,]4 z :: z | [C,C]4 [B,,B,]2 | [A,,A,]2 [G,,G,]4 | [F,,F,]6 | [F,,F,]2 [G,,G,]4 | %53
 [A,,A,]3 [G,,G,] [F,,F,]2 | [G,,G,]2 [A,,A,]4 | D,3 (ECD) | =B,2 G,4 | C4 _B,2 | A,2 E,4 | %59
 F,4 E,2 | .D,2 [A,,A,]4 | [B,,B,]4 [A,,A,]2 | [B,,B,]2 [C,C]2 [C,,C,]2 | %63
 [F,,F,]2 [C,C][B,,B,][A,,A,][G,,G,] | .F,4 z :| z/8 |[M:2/2] [F,F]2 [E,E]2 [D,D]2 [A,,A,]2 | %67
 [G,,G,]2 [F,,F,]2 [C,C]2 [F,,F,]2 | [F,F]4 [E,E]4 | D2 [C,C]2 [G,,G,]2 [C,C]2 | F2 E2 D2 A,2 | %71
 G,2 F,2 C2 F,2 | F4 E4 | D2 C2 G,2 C2 | [C,,C,]4 [F,,F,]4 | [G,,G,]2 [D,,D,]2 [A,,A,]2 [D,A,]2 | %76
 A,4 B,2 A,2 | G,2 F,2 C2 F,2 | [C,C]4 F,4 | [G,,G,]2 [D,,D,]2 [A,,A,]2 [D,A,]2 | %80
 [A,,F,A,]4 [B,,F,B,]2 [A,,F,A,]2 | G,2 F,2 [C,C]2 !fermata![F,,F,]2 :| %82
V:7
 x8 | F4 x4 | x8 | x8 | x8 | x8 | x8 | x8 | x8 | x8 | F4 x4 | x8 | x8 | x8 |][M:4/4] x8 | x8 | x8 | %17
 x8 | x8 | x8 | x8 | x8 :: x8 | x8 | x8 | x8 | x8 | x8 | x8 | x8 :| x/4 |[M:3/4] x | x6 | x6 | x6 | %35
 x6 | x6 | x6 | x6 | x6 | x6 | x6 | x6 | x6 | x6 | x2 F4 | x6 | x5 :: x | x6 | x6 | x6 | x6 | x6 | %54
 x6 | x6 | x6 | x6 | x6 | x6 | x6 | x6 | x6 | x6 | x5 :| x/4 |[M:2/2] x8 | x8 | x8 | x8 | x8 | x8 | %72
 x8 | x8 | x8 | x8 | x8 | x8 | x8 | x8 | x8 | x8 :| %82
V:8
 x8 | x8 | x8 | x8 | x8 | x8 | x8 | x8 | x8 | x8 | x6 cA | x8 | x8 | x8 |][M:4/4] x8 | x8 | x8 | %17
 x8 | x8 | x8 | [Aa]4 x4 | x8 :: x8 | x8 | x8 | x8 | x8 | x8 | x8 | x8 :| x/4 |[M:3/4] x | x6 | %33
 x6 | x6 | x6 | x6 | x6 | x6 | x6 | x6 | x6 | x6 | x6 | x6 | x6 | x6 | x5 :: x | x6 | x6 | x6 | %52
 x6 | x6 | x6 | x6 | x6 | x6 | x6 | x6 | x6 | x6 | x6 | x6 | x5 :| x/4 |[M:2/2] x8 | x8 | x8 | x8 | %70
 x8 | x8 | x8 | x8 | x8 | x8 | x8 | x8 | x8 | x8 | x8 | x8 :| %82
V:9
 x8 | x8 | x8 | x8 | x8 | x8 | x8 | x8 | x8 | x8 | x8 | x6 D2 | x8 | x8 |][M:4/4] x8 | x8 | x8 | %17
 x8 | x8 | x8 | x8 | x8 :: x8 | x8 | x8 | x8 | x8 | x8 | x8 | x8 :| x/4 |[M:3/4] x | x6 | x6 | x6 | %35
 x6 | x6 | x2 C,2 C,2 | x6 | x6 | x6 | x6 | x6 | x6 | x6 | x6 | x6 | x5 :: x | x6 | x6 | x6 | x6 | %53
 x6 | x6 | D,,3 x3 | x6 | x6 | x6 | x6 | x6 | x6 | x6 | x6 | x5 :| x/4 |[M:2/2] x8 | x8 | x8 | x8 | %70
 x8 | x8 | x8 | x8 | x8 | x8 | x8 | x4 C4 | x4 F,,4 | x8 | x8 | x2 F,,2 x4 :| %82

